app/assets/images/heroicon/mini/exclaimation-triangle.svg

<svg width="20" height="20" viewBox="0 0 20 20" fill="none" xmlns="http://www.w3.org/2000/svg">
<path fill-rule="evenodd" clip-rule="evenodd" d="M8.4845 3.49512C9.15808 2.32845 10.842 2.32845 11.5156 3.49512L17.7943 14.3701C18.4678 15.5368 17.6259 16.9951 16.2787 16.9951H3.72136C2.37421 16.9951 1.53224 15.5368 2.20582 14.3701L8.4845 3.49512ZM10 6.00012C10.4142 6.00012 10.75 6.33591 10.75 6.75012V10.2501C10.75 10.6643 10.4142 11.0001 10 11.0001C9.58579 11.0001 9.25 10.6643 9.25 10.2501L9.25 6.75012C9.25 6.33591 9.58579 6.00012 10 6.00012ZM10 15.0001C10.5523 15.0001 11 14.5524 11 14.0001C11 13.4478 10.5523 13.0001 10 13.0001C9.44772 13.0001 9 13.4478 9 14.0001C9 14.5524 9.44772 15.0001 10 15.0001Z" fill="#0F172A"/>
</svg>

<svg xmlns="http://www.w3.org/2000/svg" viewBox="0 0 20 20" fill="currentColor" aria-hidden="true">
  <path fill-rule="evenodd" d="M8.485 3.495c.673-1.167 2.357-1.167 3.03 0l6.28 10.875c.673 1.167-.17 2.625-1.516 2.625H3.72c-1.347 0-2.189-1.458-1.515-2.625L8.485 3.495zM10 6a.75.75 0 01.75.75v3.5a.75.75 0 01-1.5 0v-3.5A.75.75 0 0110 6zm0 9a1 1 0 100-2 1 1 0 000 2z" clip-rule="evenodd"/>
</svg>
